Catalina-dark/status/16/display-brightness-symbolic.svg

<?xml version="1.0" encoding="UTF-8" standalone="no"?>
<!-- Created with Inkscape (http://www.inkscape.org/) -->

<svg
   xmlns:dc="http://purl.org/dc/elements/1.1/"
   xmlns:cc="http://creativecommons.org/ns#"
   xmlns:rdf="http://www.w3.org/1999/02/22-rdf-syntax-ns#"
   xmlns:svg="http://www.w3.org/2000/svg"
   xmlns="http://www.w3.org/2000/svg"
   xmlns:sodipodi="http://sodipodi.sourceforge.net/DTD/sodipodi-0.dtd"
   xmlns:inkscape="http://www.inkscape.org/namespaces/inkscape"
   version="1.1"
   id="svg2"
   width="16"
   height="16"
   viewBox="0 0 16 16"
   sodipodi:docname="display-brightness-symbolic.svg"
   inkscape:version="0.92.4 5da689c313, 2019-01-14">
  <metadata
     id="metadata8">
    <rdf:RDF>
      <cc:Work
         rdf:about="">
        <dc:format>image/svg+xml</dc:format>
        <dc:type
           rdf:resource="http://purl.org/dc/dcmitype/StillImage" />
        <dc:title></dc:title>
      </cc:Work>
    </rdf:RDF>
  </metadata>
  <defs
     id="defs6" />
  <sodipodi:namedview
     pagecolor="#ffffff"
     bordercolor="#666666"
     borderopacity="1"
     objecttolerance="10"
     gridtolerance="10"
     guidetolerance="10"
     inkscape:pageopacity="0"
     inkscape:pageshadow="2"
     inkscape:window-width="1920"
     inkscape:window-height="1027"
     id="namedview4"
     showgrid="true"
     inkscape:zoom="29.5"
     inkscape:cx="7.7268887"
     inkscape:cy="10.845453"
     inkscape:window-x="0"
     inkscape:window-y="30"
     inkscape:window-maximized="1"
     inkscape:current-layer="svg2">
    <inkscape:grid
       type="xygrid"
       id="grid817"
       spacingx="0.25"
       spacingy="0.25" />
  </sodipodi:namedview>
  <path
     style="opacity:1;fill:#131111;fill-opacity:1;stroke:none;stroke-width:0.80000001;stroke-linecap:round;stroke-linejoin:round;stroke-miterlimit:4;stroke-dasharray:none;stroke-dashoffset:0;stroke-opacity:1;paint-order:fill markers stroke"
     d="M 7.75 2 L 7.75 4.5 L 8.25 4.5 L 8.25 2 L 7.75 2 z M 3.8535156 3.5 L 3.5 3.8535156 L 5.2675781 5.6210938 L 5.6210938 5.2675781 L 3.8535156 3.5 z M 12 3.5 L 10.232422 5.2675781 L 10.585938 5.6210938 L 12.353516 3.8535156 L 12 3.5 z M 8 5 A 3 3 0 0 0 5 8 A 3 3 0 0 0 8 11 A 3 3 0 0 0 11 8 A 3 3 0 0 0 8 5 z M 8.0117188 5.9824219 A 2.0292263 2.0292263 0 0 1 10.041016 8.0117188 A 2.0292263 2.0292263 0 0 1 8.0117188 10.041016 A 2.0292263 2.0292263 0 0 1 5.9824219 8.0117188 A 2.0292263 2.0292263 0 0 1 8.0117188 5.9824219 z M 2 7.75 L 2 8.25 L 4.5 8.25 L 4.5 7.75 L 2 7.75 z M 11.5 7.75 L 11.5 8.25 L 14 8.25 L 14 7.75 L 11.5 7.75 z M 5.2675781 10.378906 L 3.5 12.146484 L 3.8535156 12.5 L 5.6210938 10.732422 L 5.2675781 10.378906 z M 10.732422 10.378906 L 10.378906 10.732422 L 12.146484 12.5 L 12.5 12.146484 L 10.732422 10.378906 z M 7.75 11.5 L 7.75 14 L 8.25 14 L 8.25 11.5 L 7.75 11.5 z "
     id="path819" />
</svg>

<svg width="16" height="16" version="1.1" viewBox="0 0 16 16" xmlns="http://www.w3.org/2000/svg">
<path d="m7.75 2v2.5h0.5v-2.5h-0.5zm-3.8965 1.5-0.35352 0.35352 1.7676 1.7676 0.35352-0.35352-1.7676-1.7676zm8.1465 0-1.7676 1.7676 0.35352 0.35352 1.7676-1.7676-0.35352-0.35352zm-4 1.5a3 3 0 0 0-3 3 3 3 0 0 0 3 3 3 3 0 0 0 3-3 3 3 0 0 0-3-3zm0.011719 0.98242a2.0292 2.0292 0 0 1 2.0293 2.0293 2.0292 2.0292 0 0 1-2.0293 2.0293 2.0292 2.0292 0 0 1-2.0293-2.0293 2.0292 2.0292 0 0 1 2.0293-2.0293zm-6.0117 1.7676v0.5h2.5v-0.5h-2.5zm9.5 0v0.5h2.5v-0.5h-2.5zm-6.2324 2.6289-1.7676 1.7676 0.35352 0.35352 1.7676-1.7676-0.35352-0.35352zm5.4648 0-0.35352 0.35352 1.7676 1.7676 0.35352-0.35352-1.7676-1.7676zm-2.9824 1.1211v2.5h0.5v-2.5h-0.5z" fill="#131111" style="paint-order:fill markers stroke"/>
</svg>
